delete-off-outline.svg

<svg fill="currentColor" viewBox="0 0 24 24"><path d="M2 5.27 3.28 4 5 5.72l.28.28 1 1 2 2L16 16.72l2 2 2 2L18.73 22l-1.46-1.46c-.34.29-.77.46-1.27.46H8c-1.1 0-2-.9-2-2V9.27zM8 19h7.73L8 11.27zM18 7v9.18l-2-2V9h-5.18l-2-2zm-2.5-3H19v2H7.82l-2-2H8.5l1-1h5z"/></svg>

<svg  viewBox="0 0 24 24" fill="currentColor"><path  d="M2 5.27L3.28 4L5 5.72L5.28 6L6.28 7L8.28 9L16 16.72L18 18.72L20 20.72L18.73 22L17.27 20.54C16.93 20.83 16.5 21 16 21H8C6.9 21 6 20.1 6 19V9.27L2 5.27M8 19H15.73L8 11.27V19M18 7V16.18L16 14.18V9H10.82L8.82 7H18M15.5 4H19V6H7.82L5.82 4H8.5L9.5 3H14.5L15.5 4Z"/></svg>
